!!!!SEGMENT: pl-cz--iii-106--004_dankowski-adalbert--missa-e-et-resurrexit.krn
!!!cenid: 18xx:755
!!!COM: Dankowski, Adalbert
!!!COM-rismID: pe30000793
!!!CDT: ~1760-~1836
!!!CNT: Polish
!!!OPR: Missa E
!!!OTL: Et resurrexit
!!!OMV: 004
!!!PDT:
!!!AGN: Sacred; Mass
!!!SMS-siglum: PL-CZ
!!!SMS-shelfmark: III-106
!!!SMS-shelfwork: 001-004 M
!!!SMS-variant:
!!!SMS-altvar:
!!!NIFC-rismSourceID: 300000111
!!!NIFC-rismChildID: 300000111
!!!NIFC-islandoraID: pl-cz:34215
!!!URL-pdf-islandora: https://repozytorium.nifc.pl/islandora/object/pl-cz%3A34215/datastream/PDF/view
!!!URL-scan:
!!!ONB-nifc: UWAGA: części Mszy: Kyrie, Gloria, Patrem, Et resurrexit, Sanctus, Benedictus, Osanna, Agnus Dei, Dona nobis
!!!AIN: 1 alto 3 empty 1 organ 1 tenor 2 violn 1 vox
!!!key:
**kern	**kern	**dynam	**kern	**dynam	**kern	**text	**kern	**text	**kern	**text	**kern	**text	**kern	**kern
*part9	*part8	*part8	*part7	*part7	*part6	*part6	*part5	*part5	*part4	*part4	*part3	*part3	*part2	*part1
*staff9	*staff8	*	*staff7	*	*staff6	*staff6	*staff5	*staff5	*staff4	*staff4	*staff3	*staff3	*staff2	*staff1
*Iorgan	*Ivioln	*	*Ivioln	*	*Iempty	*	*Itenor	*	*Ialto	*	*Ivox	*	*Iempty	*Iempty
*I"Organo	*I"Violino Secondo	*	*I"Violino Primo	*	*I"Baſso	*	*I"Tenore	*	*I"Alto	*	*I"Canto	*	*I"Clarino Secondo Ex D:	*I"Clarino Primo Ex D:
*I'org	*I'vl II	*	*I'vl I	*	*I'B	*	*I'T	*	*I'A	*	*I'C	*	*I'clno II	*I'clno I
*clefF4	*clefG2	*	*clefG2	*	*clefF4	*	*clefC4	*	*clefC3	*	*clefC1	*	*clefG2	*clefG2
*	*	*	*	*	*	*	*	*	*	*	*	*	*ITrd-1c-2	*ITrd-1c-2
*k[f#c#]	*k[f#c#]	*	*k[f#c#]	*	*k[f#c#]	*	*k[f#c#]	*	*k[f#c#]	*	*k[f#c#]	*	*k[f#c#]	*k[f#c#]
*D:	*D:	*	*D:	*	*D:	*	*D:	*	*D:	*	*D:	*	*D:	*D:
*M4/4	*M4/4	*	*M4/4	*	*M4/4	*	*M4/4	*	*M4/4	*	*M4/4	*	*M4/4	*M4/4
*met(c)	*met(c)	*	*met(c)	*	*met(c)	*	*met(c)	*	*met(c)	*	*met(c)	*	*met(c)	*met(c)
=1	=1	=1	=1	=1	=1	=1	=1	=1	=1	=1	=1	=1	=1	=1
*2\right	*2\right	*	*	*	*2\right	*	*	*	*2\right	*	*2\right	*	*	*
!LO:TX:a:t=P:problem=oznaczenie metryczne C z kropką	!LO:TX:a:t=P:problem=oznaczenie metryczne C z kropką	!	!LO:TX:a:t=P:problem=oznaczenie metryczne C z kropką	!	!LO:TX:a:t=P:problem=oznaczenie metryczne C z kropką	!	!LO:TX:a:t=P:problem=oznaczenie metryczne C z kropką	!	!LO:TX:a:t=P:problem=oznaczenie metryczne C z kropką	!	!LO:TX:a:t=P:problem=oznaczenie metryczne C z kropką	!	!LO:TX:a:t=P:problem=oznaczenie metryczne C z kropką	!LO:TX:a:t=P:problem=oznaczenie metryczne C z kropką
!LO:TX:a:Bi:t=tutti	!	!	!	!	!	!	!LO:TX:a:t=P:problem=kolejność znaków c# F#	!	!	!	!	!	!	!
!LO:TX:a:B:t=allo	!LO:TX:a:B:t=allo	!	!LO:TX:a:B:t=allo	!	!LO:TX:a:B:t=allo&colon;	!	!LO:TX:a:B:t=allo	!	!LO:TX:a:B:t=allo	!	!LO:TX:a:B:t=allo&colon;	!	!LO:TX:a:B:t=allo	!LO:TX:a:B:t=allo&colon;
!	!	!LO:DY:a	!	!LO:DY:a	!	!	!	!	!	!	!	!	!	!
8D\L	8a/L	f	8ff#L 8a 8d\	f	4D\	Et	4A\	Et	4f#\	Et	4dd\	Et	4d/	4dd\
8D\	8a/	.	32ff#\LL	.	.	.	.	.	.	.	.	.	.	.
.	.	.	32ee\	.	.	.	.	.	.	.	.	.	.	.
.	.	.	32ff#\	.	.	.	.	.	.	.	.	.	.	.
.	.	.	32gg\JJJ	.	.	.	.	.	.	.	.	.	.	.
8F#\	8a/	.	16aa\LL	.	8F#\	re-	8A\	re-	8f#\	re-	8dd\	re-	8r	8r
.	.	.	16ff#\	.	.	.	.	.	.	.	.	.	.	.
8D\J	8f#/J	.	16dd\	.	8D\	-ſur-	8A\	-ſur-	8f#\	-ſur-	8dd\	-ſur-	8d/	8dd\
.	.	.	16a\JJ	.	.	.	.	.	.	.	.	.	.	.
16G\LL	8d/L	.	8f#/	.	16G\LL	-rex-	8B\	-rex-	8f#\	-rex-	8dd\	-rex-	8d/L	8dd\L
16F#\	.	.	.	.	16F#\JJ	.	.	.	.	.	.	.	.	.
16G\	16B/L	.	4dd\	.	16G\LL	-it	16B\LL	-it	8f#\	-it	8dd\	-it	8d/	8dd\
16A\JJ	16c#/JJ	.	.	.	16A\JJ	.	16c#\JJ	.	.	.	.	.	.	.
16B\LL	16d/LL	.	.	.	16B\LL	ter-	16d\LL	ter-	8f#\	ter-	8dd\	ter-	8d/	8dd\
16A\	16c#/	.	.	.	16A\JJ	.	16c#\JJ	.	.	.	.	.	.	.
16B\	16d/	.	8dd\	.	16B\	-ti-	16d\	-ti-	16f#\	-ti-	16dd\	-ti-	8d/J	8dd\J
16c#\JJ	16e/JJ	.	.	.	16c#\	-a	16e\	-a	16f#\	-a	16dd\	-a	.	.
=2	=2	=2	=2	=2	=2	=2	=2	=2	=2	=2	=2	=2	=2	=2
8d\L	16f#/LL	.	16dd\LL	.	8d\	Di-	8A\	di-	8f#\	di-	8dd\	Di-	8d/L	8dd\L
.	16e/	.	16cc#\	.	.	.	.	.	.	.	.	.	.	.
8D\J	16f#/	.	16dd\	.	8D\	-e	8A\	-e	8f#\	-e	8dd\	-e	8d/J	8dd\J
.	16g/JJ	.	16ee\JJ	.	.	.	.	.	.	.	.	.	.	.
8r	16a\LL	.	16ff#\LL	.	8r	.	8r	.	8r	.	8r	.	4r	4r
.	16g\	.	16ee\	.	.	.	.	.	.	.	.	.	.	.
8d\	16a\	.	16ff#\	.	8d\	ſe-	8d\	ſe-	16f#\LL	ſe-	8ff#\	ſe-	.	.
.	16ff#\JJ	.	16aa\JJ	.	.	.	.	.	16a\JJ	.	.	.	.	.
8c#\L	8ee\L	.	16aa\LL	.	8c#\L	-cun-	8e\L	-cun-	16a\LL	-cun-	8ee\L	-cun-	2r	2r
.	.	.	16gg\	.	.	.	.	.	16g\	.	.	.	.	.
8B\	8dd\	.	16gg\	.	8B\J	.	8d\J	.	16g\	.	8dd\J	.	.	.
.	.	.	16ff#\JJ	.	.	.	.	.	16f#\JJ	.	.	.	.	.
8A\	8cc#\	.	16ff#\LL	.	8A\	-dum	8c#\	-dum	16f#\LL	-dum,	8cc#\	-dum	.	.
.	.	.	16ee\	.	.	.	.	.	16e\JJ	.	.	.	.	.
8G\J	8b\J	.	16ee\	.	8G\	ſe-	8d\	ſe-	16e\LL	ſe-	8b\	ſe-	.	.
.	.	.	16dd\JJ	.	.	.	.	.	16d\JJ	.	.	.	.	.
=3	=3	=3	=3	=3	=3	=3	=3	=3	=3	=3	=3	=3	=3	=3
8F#\L	8a/L	.	16cc#\LL	.	8F#\L	-cun-	8d\L	-cun-	8d\L	-cun-	4a\	-cun-	8r	8r
.	.	.	16dd\	.	.	.	.	.	.	.	.	.	.	.
8A\	8a/	.	16ee\	.	8A\J	.	8e\J	.	8c#\J	.	.	.	8a\L	8ee\L
.	.	.	16cc#\JJ	.	.	.	.	.	.	.	.	.	.	.
8F#\	8a/	.	16dd\LL	.	8F#\	-dum	8d\	-dum	8d\	-dum	8a\	-dum	8dd\	8ff#\
.	.	.	16a\	.	.	.	.	.	.	.	.	.	.	.
!	!	!	!LO:SIC:v:s=16dd\	!	!	!	!	!	!	!	!	!	!	!
8D\J	8a/J	.	16cc#\	.	8D\	ſcrip-	8f#\	ſcrip-	8f#\	ſcrip-	8a\	ſcrip-	8ff#\J	8aa\J
.	.	.	16ff#\JJ	.	.	.	.	.	.	.	.	.	.	.
2B\	2dd\	.	8aa\L	.	2B\	-tu-	4f#\	-tu-	4a\	-tu-	2dd\	-tu-	4ff#\	4aa\
.	.	.	8aa\	.	.	.	.	.	.	.	.	.	.	.
.	.	.	8gg#X\	.	.	.	4e\	.	4g#X\	.	.	.	4ee\	4gg#X\
.	.	.	8gg#\J	.	.	.	.	.	.	.	.	.	.	.
=4	=4	=4	=4	=4	=4	=4	=4	=4	=4	=4	=4	=4	=4	=4
!	!	!	!LO:TX:a:t=P:problem=mixed beam	!	!	!	!	!	!	!	!	!	!	!
4A\	8cc#\L	.	8aa\L	.	4A\	-ras	4e\	-ras	4a\	-ras	8cc#\	-ras	4a/	4aa\
.	16a\L	.	16a\L	.	.	.	.	.	.	.	16a\LL	(et)	.	.
.	16b\JJ	.	16b\JJ	.	.	.	.	.	.	.	16b\JJ	.	.	.
4r	16cc#\LL	.	16cc#\LL	.	4r	.	4r	.	4r	.	16cc#\LL	aſ-	4r	4r
.	16dd\	.	16dd\	.	.	.	.	.	.	.	16dd\	.	.	.
.	16ee\	.	16ee\	.	.	.	.	.	.	.	16ee\	.	.	.
.	16ff#\JJ	.	16ff#\JJ	.	.	.	.	.	.	.	16ff#\JJ	.	.	.
8r	4.ggn\	.	4.ggn\	.	8r	.	8r	.	8r	.	2ggn\	-cen-	8r	8r
16AA/LL	.	.	.	.	16AA/LL	in	8e\	in	8a\	in	.	.	8ee\L	8gg\L
16BB/JJ	.	.	.	.	16BB/JJ	.	.	.	.	.	.	.	.	.
16C#/LL	.	.	.	.	16C#/LL	Cae-	4e\	Cae-	4a\	Cae-	.	.	8ee\	8gg\
16D/	.	.	.	.	16D/	.	.	.	.	.	.	.	.	.
16E/	16aa\LL	.	16aa\LL	.	16E/	.	.	.	.	.	.	.	8ee\J	8gg\J
16C#/JJ	16gg\JJ	.	16gg\JJ	.	16C#/JJ	.	.	.	.	.	.	.	.	.
=5	=5	=5	=5	=5	=5	=5	=5	=5	=5	=5	=5	=5	=5	=5
4D\	8ff#\L	.	8ff#\L	.	4D\	-lum	4d\	-lum	8a\	-lum	4ff#\	-dit	4dd\	4ff#\
.	16dd\L	.	16dd\L	.	.	.	.	.	(16d\LL	(et)	.	.	.	.
.	16ee\JJ	.	16ee\JJ	.	.	.	.	.	16e\JJ	.	.	.	.	.
4r	16ff#\LL	.	16ff#\LL	.	4r	.	4r	.	16f#\LL	.	4r	.	4r	4r
.	16gg\	.	16gg\	.	.	.	.	.	16g\JJ)	.	.	.	.	.
.	16aa\	.	16aa\	.	.	.	.	.	16a\LL	aſ-	.	.	.	.
.	16bb\JJ	.	16bb\JJ	.	.	.	.	.	16b\JJ	.	.	.	.	.
8r	4.cccn\	.	4.cccn\	.	8r	.	8r	.	2ccn\	-cen-	8r	.	8r	8r
16D\LL	.	.	.	.	16D\LL	{in	8A\	{in	.	.	8dd\	in	8d/L	8dd\L
16E\JJ	.	.	.	.	16E\JJ	.	.	.	.	.	.	.	.	.
16F#\LL	.	.	.	.	16F#\LL	Cae-	4A\	Cae-	.	.	4dd\	Cae-	8d/	8dd\
16G\	.	.	.	.	16G\	.	.	.	.	.	.	.	.	.
16A\	16ddd\LL	.	16ddd\LL	.	16A\	.	.	.	.	.	.	.	8d/J	8dd\J
16F#\JJ	16ccc\JJ	.	16ccc\JJ	.	16F#\JJ	.	.	.	.	.	.	.	.	.
=6	=6	=6	=6	=6	=6	=6	=6	=6	=6	=6	=6	=6	=6	=6
!LO:TX:a:t=P:problem=mixed beam	!	!	!	!	!	!	!	!	!	!	!	!	!	!
8G\L	16ff#\LL	.	16bb\LL	.	4G\	-lum}	4d\	-lum}	4b\	-dit	4ff#\	-lum	8d/	8dd\
.	16ff#\	.	16bb\	.	.	.	.	.	.	.	.	.	.	.
8G\	16ff#\	.	16bb\	.	.	.	.	.	.	.	.	.	8r	8r
.	16ff#\JJ	.	16bb\JJ	.	.	.	.	.	.	.	.	.	.	.
*	*tremolo	*	*tremolo	*	*	*	*	*	*	*	*	*	*	*
8C#\	16ee\LL	.	16bb\LL	.	4C#/	ſe-	4c#\	ſe-	4b\	ſe-	4ee\	ſe-	4r	4r
.	16ee\	.	16bb\	.	.	.	.	.	.	.	.	.	.	.
8C#\J	16ee\	.	16bb\	.	.	.	.	.	.	.	.	.	.	.
.	16ee\JJ	.	16bb\JJ	.	.	.	.	.	.	.	.	.	.	.
!LO:TX:a:t=P:problem=mixed beam	!	!	!	!	!	!	!	!	!	!	!	!	!	!
8F#\L	16ee\LL	.	16aa\LL	.	4F#\	-det	4c#\	-det	4a\	-det	4ee\	-det	2r	2r
.	16ee\	.	16aa\	.	.	.	.	.	.	.	.	.	.	.
8F#\	16ee\	.	16aa\	.	.	.	.	.	.	.	.	.	.	.
.	16ee\JJ	.	16aa\JJ	.	.	.	.	.	.	.	.	.	.	.
8BB\	16dd\LL	.	16aa\LL	.	4BB/	ad	4B\	ad	4a\	ad	4dd\	ad	.	.
.	16dd\	.	16aa\	.	.	.	.	.	.	.	.	.	.	.
8BB\J	16dd\	.	16aa\	.	.	.	.	.	.	.	.	.	.	.
.	16dd\JJ	.	16aa\JJ	.	.	.	.	.	.	.	.	.	.	.
*	*Xtremolo	*	*Xtremolo	*	*	*	*	*	*	*	*	*	*	*
=7	=7	=7	=7	=7	=7	=7	=7	=7	=7	=7	=7	=7	=7	=7
!LO:TX:a:t=P:problem=mixed beam	!	!	!	!	!	!	!	!	!	!	!	!	!	!
8E\L	8dd\L	.	8gg\L	.	8E\	dex-	8B\	dex-	8g\	dex-	8dd\	dex-	4r	4r
8AA\J	8cc#\J	.	16aa\L	.	8AA/	-te-	8A\	-te-	8g\	-te-	8cc#\	-te-	.	.
.	.	.	16gg\JJ	.	.	.	.	.	.	.	.	.	.	.
8D\L	8dd\L	.	16gg\LL	.	8D\L	-ram	4A\	-ram	4f#\	-ram	4dd\	-ram	8r	8r
.	.	.	16ff#\	.	.	.	.	.	.	.	.	.	.	.
8F#\J	8a\J	.	16ee\	.	8F#\J	.	.	.	.	.	.	.	8dd\	8ff#\
.	.	.	16dd\JJ	.	.	.	.	.	.	.	.	.	.	.
!LO:TX:a:t=P:problem=mixed beam	!	!	!	!	!	!	!	!	!	!	!	!	!	!
8G\L	16g/LL	.	16ee\LL	.	4G\	pat-	(4B\	pat-	4g\	pat-	4ee\	pat-	4ee\	4gg\
.	16a/	.	16ff#\	.	.	.	.	.	.	.	.	.	.	.
8G\	16b/	.	16gg\	.	.	.	.	.	.	.	.	.	.	.
.	16g/JJ	.	16ee\JJ	.	.	.	.	.	.	.	.	.	.	.
!	!	!	!	!	!LO:TX:a:t=P:problem=mixed beam	!	!	!	!	!	!	!	!	!
8A\	16g/LL	.	16ee\LL	.	8A\L	.	4A\)	.	8f#\L	.	8dd\L	.	8dd\L	8ff#\L
.	16f#/	.	16dd\	.	.	.	.	.	.	.	.	.	.	.
8AA\J	16f#/	.	16dd\	.	8AA\J	.	.	.	8e\J	.	8cc#\J	.	8a\J	8ee\J
.	16e/JJ	.	16cc#\JJ	.	.	.	.	.	.	.	.	.	.	.
=8	=8	=8	=8	=8	=8	=8	=8	=8	=8	=8	=8	=8	=8	=8
4D\	4f#/	.	4dd\	.	4D\	-ris	4A\	-ris	8f#\	-ris	4dd\	-ris	4f#/	4dd\
.	.	.	.	.	.	.	.	.	8a\	(et)	.	.	.	.
!LO:TX:a:Bi:t=Solo	!	!LO:DY:a	!	!LO:DY:a	!	!	!	!	!	!	!	!	!	!
8r	8r	p	8r	p	4r	.	4r	.	8f#\	i-	4r	.	4r	4r
8D\	8a/	.	8dd\	.	.	.	.	.	16g\LL	-te-	.	.	.	.
.	.	.	.	.	.	.	.	.	16a\JJ	.	.	.	.	.
!LO:TX:a:t=P:problem=mixed beam	!	!	!	!	!	!	!	!	!	!	!	!	!	!
8G\L	8g/L	.	8dd\L	.	2r	.	2r	.	8b\	-rum	2r	.	2r	2r
8F#\	8a/	.	8dd\	.	.	.	.	.	8a\	Ven-	.	.	.	.
8E\	8b/	.	8dd\	.	.	.	.	.	8.g\	-tu-	.	.	.	.
8AA\J	8a/J	.	8cc#\J	.	.	.	.	.	.	.	.	.	.	.
.	.	.	.	.	.	.	.	.	16g\	-rus	.	.	.	.
=9	=9	=9	=9	=9	=9	=9	=9	=9	=9	=9	=9	=9	=9	=9
8D/L	8a/L	.	8dd\L	.	2r	.	2r	.	8f#\	eſt	2r	.	1r	1r
8C#/J	8a/	.	8ee\J	.	.	.	.	.	8a\	Cum	.	.	.	.
4BB/	8f#/	.	4dd\	.	.	.	.	.	8a\	glo-	.	.	.	.
.	8e/J	.	.	.	.	.	.	.	8g#X\	-ri-	.	.	.	.
!LO:TX:a:Bi:t=tutt	!	!	!	!	!	!	!	!	!	!	!	!	!	!
4AA/	4e/	.	4cc#\	.	4r	.	4r	.	4a\	-a	4r	.	.	.
!	!	!LO:DY:a	!	!LO:DY:a	!	!	!	!	!	!	!	!	!	!
8F#\L	8cc#\L	f	16ee\LL	f	8F#\	Ju-	8A#X\	Ju-	8e\	Ju-	8cc#\	Ju-	.	.
.	.	.	16cc#\	.	.	.	.	.	.	.	.	.	.	.
8F#\J	8cc#\J	.	16dd\	.	8F#\	-di-	8A#\	-di-	8e\	-di-	8cc#\	-di-	.	.
.	.	.	16ee\JJ	.	.	.	.	.	.	.	.	.	.	.
=10	=10	=10	=10	=10	=10	=10	=10	=10	=10	=10	=10	=10	=10	=10
4B\	16dd\LL	.	4ff#\	.	4B\	-ca-	4B\	-ca-	4f#\	-ca-	4dd\	-ca-	1r	1r
.	16b\	.	.	.	.	.	.	.	.	.	.	.	.	.
.	16cc#\	.	.	.	.	.	.	.	.	.	.	.	.	.
.	16dd\JJ	.	.	.	.	.	.	.	.	.	.	.	.	.
4E\	8g/L	.	16dd\LL	.	4E\	-re	4B\	-re	4g\	-re	4dd\	-re	.	.
.	.	.	16b\	.	.	.	.	.	.	.	.	.	.	.
.	8g/J	.	16cc#\	.	.	.	.	.	.	.	.	.	.	.
.	.	.	16dd\JJ	.	.	.	.	.	.	.	.	.	.	.
4An\	8cc#\L	.	4.ee\	.	4An\	Vi-	4c#\	Vi-	4cc#\	Vi-	4ee\	Vi-	.	.
.	8cc#\	.	.	.	.	.	.	.	.	.	.	.	.	.
4Gn\	8b\	.	.	.	8Gn\	-vos	8d\	-vos	8b\	-vos	8ee\	-vos	.	.
.	8b\J	.	8dd\	.	8G\	(et)	8d\	(et)	8b\	(et)	8dd\	(et)	.	.
=11	=11	=11	=11	=11	=11	=11	=11	=11	=11	=11	=11	=11	=11	=11
4F#\	8a#X/L	.	8dd\	.	4F#\	mor-	4c#\	mor-	4a#X\	mor-	8dd\	mor-	1r	1r
.	8a#/	.	4cc#\	.	.	.	.	.	.	.	4cc#\	.	.	.
4E#X\	8g/	.	.	.	4E#X\	-tu-	4c#\	-tu-	4g\	-tu-	.	.	.	.
.	8g/J	.	8b\	.	.	.	.	.	.	.	8b\	-tu-	.	.
4F#\	8f#/L	.	8a#X/L	.	4F#\	-os	4c#\	-os	4f#\	-os	8a#X\	-os	.	.
.	16f#/L	.	16f#/L	.	.	.	.	.	.	.	(16f#\LL	Cu-	.	.
.	16g/JJ	.	16g/JJ	.	.	.	.	.	.	.	16g\JJ	.	.	.
4r	16a#X\LL	.	16a#\LL	.	4r	.	4r	.	4r	.	16a#\LL	.	.	.
.	16b\	.	16b\	.	.	.	.	.	.	.	16b\JJ)	.	.	.
.	16cc#\	.	16cc#\	.	.	.	.	.	.	.	16cc#\LL	-jus	.	.
.	16dd\JJ	.	16dd\JJ	.	.	.	.	.	.	.	16dd\JJ	.	.	.
=12	=12	=12	=12	=12	=12	=12	=12	=12	=12	=12	=12	=12	=12	=12
8r	4.ee\	.	4.ee\	.	8r	.	8r	.	8r	.	2ee\	reg-	8r	8r
16F#\LL	.	.	.	.	16F#\LL	non	8c#\	non	8f#\	non	.	.	8f#/L	8ff#\L
16G\JJ	.	.	.	.	16G\JJ	.	.	.	.	.	.	.	.	.
16A#X\LL	.	.	.	.	16A#X\LL	e-	8c#\	e-	8f#\	e-	.	.	8f#/	8ff#\
16B\	.	.	.	.	16B\JJ	.	.	.	.	.	.	.	.	.
16c#\	16ff#\LL	.	16ff#\LL	.	16c#\LL	-rit	8c#\	-rit	8f#\	-rit	.	.	8f#/J	8ff#\J
16A#\JJ	16ee\JJ	.	16ee\JJ	.	16A#\JJ	.	.	.	.	.	.	.	.	.
4B\	8dd\L	.	8dd\L	.	8B\	fi-	8B\	fi-	8f#\	fi-	8dd\	-ni	4f#/	4ff#\
.	16an\L	.	16an\L	.	8B\	-nis	8B\	-nis	8f#\	-nis	(16an\LL	Cu-	.	.
.	16b\JJ	.	16b\JJ	.	.	.	.	.	.	.	16b\JJ	.	.	.
4r	16cc#\LL	.	16cc#\LL	.	4r	.	4r	.	4r	.	16cc#\LL	.	4r	4r
.	16dd\	.	16dd\	.	.	.	.	.	.	.	16dd\JJ)	.	.	.
.	16ee\	.	16ee\	.	.	.	.	.	.	.	16ee\LL	-jus	.	.
.	16ff#\JJ	.	16ff#\JJ	.	.	.	.	.	.	.	16ff#\JJ	.	.	.
=13	=13	=13	=13	=13	=13	=13	=13	=13	=13	=13	=13	=13	=13	=13
8r	4.gg\	.	4.gg\	.	8r	.	8r	.	8r	.	2gg\	reg-	8r	8r
16An\LL	.	.	.	.	16A\LL	{non	8e\	non	8a\	non	.	.	8ee\L	8gg\L
16B\JJ	.	.	.	.	16B\JJ	.	.	.	.	.	.	.	.	.
16c#\LL	.	.	.	.	16c#\LL	e-	8e\	e-	8a\	e-	.	.	8ee\	8gg\
16d\	.	.	.	.	16d\JJ	.	.	.	.	.	.	.	.	.
16e\	16aa\LL	.	16aa\LL	.	16e\LL	-rit	8e\	-rit	8a\	-rit	.	.	8ee\J	8gg\J
16c#\JJ	16gg\JJ	.	16gg\JJ	.	16c#\JJ	.	.	.	.	.	.	.	.	.
4d\	16ff#\LL	.	16ff#\LL	.	8d\	fi-	8d\	fi-	8a\	fi-	4ff#\	-ni	4dd\	4ff#\
.	16dd\	.	16dd\	.	.	.	.	.	.	.	.	.	.	.
.	16ee\	.	16ee\	.	8d\	-nis}	8d\	-nis	8a\	-nis	.	.	.	.
.	16ff#\JJ	.	16ff#\JJ	.	.	.	.	.	.	.	.	.	.	.
8r	16gg\LL	.	16gg\LL	.	8r	.	8r	.	8r	.	8r	.	8r	8r
.	16ff#\	.	16ff#\	.	.	.	.	.	.	.	.	.	.	.
8F#\	16ee\	.	16ee\	.	8F#\	non	8d\	non	8a\	non	8dd\	non	8dd\	8aa\
.	16dd\JJ	.	16dd\JJ	.	.	.	.	.	.	.	.	.	.	.
=14	=14	=14	=14	=14	=14	=14	=14	=14	=14	=14	=14	=14	=14	=14
4G\	8b\L	.	16ee\LL	.	4G\	e-	4B\	e-	4g\	e-	4ee\	e-	4ee\	4gg\
.	.	.	16ff#\	.	.	.	.	.	.	.	.	.	.	.
.	8b\	.	16gg\	.	.	.	.	.	.	.	.	.	.	.
.	.	.	16ee\JJ	.	.	.	.	.	.	.	.	.	.	.
4A\	8cc#\	.	16dd\LL	.	8A\	-rit	8A\	-rit	8e\	-rit	8cc#\	-rit	4a/	4ee\
.	.	.	16cc#\	.	.	.	.	.	.	.	.	.	.	.
*	*	*	*	*	*	*ij	*	*ij	*	*ij	*	*ij	*	*
.	8cc#\J	.	16ee\	.	8A\	non	8A\	non	8e\	non	8cc#\	non	.	.
.	.	.	16gg\JJ	.	.	.	.	.	.	.	.	.	.	.
!	!LO:TX:a:t=P:problem=mixed beam	!	!	!	!	!	!	!	!	!	!	!	!	!
8D\L	8dd\L	.	8ff#\	.	8D\	e-	8A\	e-	8f#\	e-	8dd\	e-	8dd\	4ff#\
8B\	8f#\J	.	4dd\	.	8B\	-rit	8B\	-rit	8f#\	-rit	8dd\	-rit	4dd\	.
*	*	*	*	*	*	*Xij	*	*Xij	*	*Xij	*	*Xij	*	*
8G\	4e/	.	.	.	8G\L	fi-	8B\L	fi-	4e\	fi-	8dd\L	fi-	.	4ee\
8A\J	.	.	8cc#\	.	8A\J	.	8A\J	.	.	.	8cc#\J	.	8a/	.
=15	=15	=15	=15	=15	=15	=15	=15	=15	=15	=15	=15	=15	=15	=15
!LO:TX:a:Bi:t=Solo	!	!	!	!	!	!	!	!	!	!	!	!	!	!
4D\	4f#/	.	4dd\	.	8D\	-nis	4A\	-nis	4f#\	-nis	4dd\	-nis	4f#/	4dd\
!	!	!	!	!	!LO:TX:a:Bi:t=Solo&colon;	!	!	!	!	!	!	!	!	!
.	.	.	.	.	8D\L	(et)	.	.	.	.	.	.	.	.
8r	4r	.	4r	.	8F#\J	.	4r	.	4r	.	4r	.	4r	4r
8C#/	.	.	.	.	8A\	in	.	.	.	.	.	.	.	.
8D\L	2r	.	2r	.	8.d\	ſpi-	2r	.	2r	.	2r	.	2r	2r
8E\	.	.	.	.	.	.	.	.	.	.	.	.	.	.
.	.	.	.	.	16D\	-ri-	.	.	.	.	.	.	.	.
8F#\	.	.	.	.	8D\	-tum	.	.	.	.	.	.	.	.
8B\J	.	.	.	.	8d\	ſanc-	.	.	.	.	.	.	.	.
=16	=16	=16	=16	=16	=16	=16	=16	=16	=16	=16	=16	=16	=16	=16
8A\L	1r	.	1r	.	8c#\L	.	1r	.	1r	.	1r	.	1r	1r
8G\	.	.	.	.	8B\J	.	.	.	.	.	.	.	.	.
8F#\	.	.	.	.	8A\L	-tam	.	.	.	.	.	.	.	.
8E\J	.	.	.	.	8G\J	.	.	.	.	.	.	.	.	.
8D\L	.	.	.	.	8.F#\	Do-	.	.	.	.	.	.	.	.
16D\L	.	.	.	.	.	.	.	.	.	.	.	.	.	.
16E\JJ	.	.	.	.	16G\	-mi-	.	.	.	.	.	.	.	.
8F#\L	.	.	.	.	8A\	-num	.	.	.	.	.	.	.	.
8F#\J	.	.	.	.	8d\	(et)	.	.	.	.	.	.	.	.
=17	=17	=17	=17	=17	=17	=17	=17	=17	=17	=17	=17	=17	=17	=17
4.G\	1r	.	1r	.	8B\L	Vi-	1r	.	1r	.	1r	.	1r	1r
.	.	.	.	.	16c#\L	.	.	.	.	.	.	.	.	.
.	.	.	.	.	16d\JJ	.	.	.	.	.	.	.	.	.
.	.	.	.	.	8e\	-vi-	.	.	.	.	.	.	.	.
8G#X\	.	.	.	.	8d\	-fi-	.	.	.	.	.	.	.	.
!LO:TX:a:t=P:problem=mixed beam	!	!	!	!	!	!	!	!	!	!	!	!	!	!
8A\L	.	.	.	.	8d\	-can-	.	.	.	.	.	.	.	.
8AA\J	.	.	.	.	8c#\	-tem	.	.	.	.	.	.	.	.
8r	.	.	.	.	16A\LL	qui	.	.	.	.	.	.	.	.
.	.	.	.	.	16B\JJ	.	.	.	.	.	.	.	.	.
8C#/	.	.	.	.	16A\LL	ex	.	.	.	.	.	.	.	.
.	.	.	.	.	16Gn\JJ	.	.	.	.	.	.	.	.	.
=18	=18	=18	=18	=18	=18	=18	=18	=18	=18	=18	=18	=18	=18	=18
4.D\	1r	.	1r	.	16G\LL	pa-	1r	.	1r	.	1r	.	1r	1r
.	.	.	.	.	16F#\JJ	.	.	.	.	.	.	.	.	.
.	.	.	.	.	8F#\	-tre	.	.	.	.	.	.	.	.
.	.	.	.	.	16B\LL	fi-	.	.	.	.	.	.	.	.
.	.	.	.	.	16c#\JJ	.	.	.	.	.	.	.	.	.
8D#X\	.	.	.	.	16B\LL	-li-	.	.	.	.	.	.	.	.
.	.	.	.	.	16A\JJ	.	.	.	.	.	.	.	.	.
8E\L	.	.	.	.	8.G#X\L	-o	.	.	.	.	.	.	.	.
8Dn\	.	.	.	.	.	.	.	.	.	.	.	.	.	.
.	.	.	.	.	32F#\LL	.	.	.	.	.	.	.	.	.
.	.	.	.	.	32G#\JJJ	.	.	.	.	.	.	.	.	.
8C#\	.	.	.	.	8A\	que	.	.	.	.	.	.	.	.
8D\J	.	.	.	.	8B\	pro-	.	.	.	.	.	.	.	.
=19	=19	=19	=19	=19	=19	=19	=19	=19	=19	=19	=19	=19	=19	=19
8C#\L	8r	.	8r	.	4.A\	-ce-	2r	.	2r	.	2r	.	2r	2r
8F#\	8f#/L	.	8cc#\L	.	.	.	.	.	.	.	.	.	.	.
8D\	8f#/	.	8b\	.	.	.	.	.	.	.	.	.	.	.
8E\J	8e/J	.	8b\J	.	8G#X\	.	.	.	.	.	.	.	.	.
!LO:TX:a:t=P:problem=mixed beam	!	!	!	!	!	!	!	!	!	!	!	!	!	!
!LO:TX:a:Bi:t=tutti	!	!	!	!	!	!	!	!	!	!	!	!	!	!
8AA\L	8.e/L	.	8.cc#\L	.	4A\	-dit	8r	.	8r	.	8r	.	8r	8r
8A\	.	.	.	.	.	.	4A\	qui	4e\	qui	4cc#\	qui	8a/L	8aa\L
.	16a/Jk	.	16a\Jk	.	.	.	.	.	.	.	.	.	.	.
8A\	16ee\LL	.	16ee\LL	.	8A\	qui	.	.	.	.	.	.	8a/	8aa\
.	16cc#\	.	16cc#\	.	.	.	.	.	.	.	.	.	.	.
8A\J	16aa\	.	16aa\	.	8A\	Cum	8A\	Cum	8e\	Cum	8cc#\	Cum	8a/J	8aa\J
.	16ee\JJ	.	16ee\JJ	.	.	.	.	.	.	.	.	.	.	.
=20	=20	=20	=20	=20	=20	=20	=20	=20	=20	=20	=20	=20	=20	=20
8G\L	8.cc#\L	.	8.cc#\L	.	4Gn\	pa-	4A\	pa-	4e\	pa-	4cc#\	pa-	4a/	4aa\
8G\	.	.	.	.	.	.	.	.	.	.	.	.	.	.
.	16a\Jk	.	16a\Jk	.	.	.	.	.	.	.	.	.	.	.
8G\	16ee\LL	.	16ee\LL	.	8G\	-tre	8A\	-tre	8e\	-tre	8cc#\	-tre	4a/	4aa\
.	16cc#\	.	16cc#\	.	.	.	.	.	.	.	.	.	.	.
8F#\J	16aa\	.	16aa\	.	8G\	(et)	8A\	(et)	8e\	(et)	8cc#\	(et)	.	.
.	16ee\JJ	.	16ee\JJ	.	.	.	.	.	.	.	.	.	.	.
8F#\L	8.cc#\L	.	8.cc#\L	.	8.F#\	fi-	8.A\	fi-	8f#\	fi-	8.cc#\	fi-	4a/	4aa\
8F#\	.	.	.	.	.	.	.	.	8f#\	-li-	.	.	.	.
.	16a\Jk	.	16a\Jk	.	16F#\	-li-	16A\	-li-	.	.	16cc#\	-li-	.	.
!	!	!	!	!	!LO:TX:b:Bi:t=Verte	!	!	!	!	!	!	!	!	!
8F#\	16ee\LL	.	16ee\LL	.	4F#\	-o	4A\	-o	4f#\	-o	4cc#\	-o	4r	4r
.	16cc#\	.	16cc#\	.	.	.	.	.	.	.	.	.	.	.
8B\J	16aa\	.	16aa\	.	.	.	.	.	.	.	.	.	.	.
.	16cc#\JJ	.	16cc#\JJ	.	.	.	.	.	.	.	.	.	.	.
=21	=21	=21	=21	=21	=21	=21	=21	=21	=21	=21	=21	=21	=21	=21
8B\L	8.dd\L	.	8.dd\L	.	8B\	ſi-	8B\	ſi-	8f#\	ſi-	8dd\	ſi-	1r	1r
8B\	.	.	.	.	8B\	-mul	8B\	-mul	8f#\	-mul	8dd\	-mul	.	.
.	16b\Jk	.	16b\Jk	.	.	.	.	.	.	.	.	.	.	.
8B\	16ff#\LL	.	16ff#\LL	.	8B\	a-	8B\	a-	8f#\	a-	8dd#X\	a-	.	.
.	16dd#X\	.	16dd#X\	.	.	.	.	.	.	.	.	.	.	.
8B\J	16bb\	.	16bb\	.	8B\	-do-	8B\	-do-	8f#\	-do-	8dd#\	-do-	.	.
.	16ff#\JJ	.	16ff#\JJ	.	.	.	.	.	.	.	.	.	.	.
8e\L	16ff#\LL	.	16ff#\LL	.	8E\	-ra-	8B\	-ra-	8g\	-ra-	8ee\	-ra-	.	.
.	16gg\J	.	16gg\J	.	.	.	.	.	.	.	.	.	.	.
8E\J	8gg\J	.	8gg\J	.	8E\	-tur	8B\	-tur	8g\	-tur	8ee\	-tur	.	.
4r	16gg\LL	.	16gg\LL	.	4r	.	4r	.	4r	.	4r	.	.	.
.	16ff#\	.	16ff#\	.	.	.	.	.	.	.	.	.	.	.
.	16ee\	.	16ee\	.	.	.	.	.	.	.	.	.	.	.
.	16ddn\JJ	.	16ddn\JJ	.	.	.	.	.	.	.	.	.	.	.
=22	=22	=22	=22	=22	=22	=22	=22	=22	=22	=22	=22	=22	=22	=22
8A\L	8.cc#\L	.	8.cc#\L	.	8A\	(et)	8A\	(et)	8e\	(et)	8cc#\	(et)	4a/	4ee\
8A\	.	.	.	.	16A\	Con-	16A\	Con-	16e\	Con-	16cc#\	Con-	.	.
.	16a\Jk	.	16a\Jk	.	16A\	-glo-	16A\	-glo-	16e\	-glo-	16cc#\	-glo-	.	.
8A\	16ee\LL	.	16ee\LL	.	8A\	-ri-	8A\	-ri-	8e\	-ri-	8cc#\	-ri-	4a/	4ee\
.	16cc#\	.	16cc#\	.	.	.	.	.	.	.	.	.	.	.
8A\J	16aa\	.	16aa\	.	8A\	-fi-	8A\	-fi-	8e\	-fi-	8cc#\	-fi-	.	.
.	16ee\JJ	.	16ee\JJ	.	.	.	.	.	.	.	.	.	.	.
8d\L	16ee\LL	.	16ee\LL	.	8D\	-ca-	8A\	-ca-	8f#\	-ca-	8dd\	-ca-	4dd\	4ff#\
.	16ff#\J	.	16ff#\J	.	.	.	.	.	.	.	.	.	.	.
8D\J	8ff#\J	.	8ff#\J	.	8D\	-tur	8A\	-tur	8f#\	-tur	8dd\	-tur	.	.
4r	16ff#\LL	.	16ff#\LL	.	4r	.	4r	.	4r	.	4r	.	4r	4r
.	16ee\	.	16ee\	.	.	.	.	.	.	.	.	.	.	.
.	16dd\	.	16dd\	.	.	.	.	.	.	.	.	.	.	.
.	16cc#\JJ	.	16cc#\JJ	.	.	.	.	.	.	.	.	.	.	.
=23	=23	=23	=23	=23	=23	=23	=23	=23	=23	=23	=23	=23	=23	=23
8G\L	8b\L	.	8.b\L	.	4G\	qui	4d\	qui	4b\	qui	4dd\	qui	4dd\	4gg\
8G\	8b\	.	.	.	.	.	.	.	.	.	.	.	.	.
.	.	.	32cc#\LL	.	.	.	.	.	.	.	.	.	.	.
.	.	.	32dd\JJJ	.	.	.	.	.	.	.	.	.	.	.
8G\	8b\	.	16ee\LL	.	4G\	lo-	4d\	lo-	4b\	lo-	4ee\	lo-	4ee\	4gg\
.	.	.	16ff#\	.	.	.	.	.	.	.	.	.	.	.
8G\J	8b\J	.	16gg\	.	.	.	.	.	.	.	.	.	.	.
.	.	.	16ee\JJ	.	.	.	.	.	.	.	.	.	.	.
.	.	.	16qqdd/	.	.	.	.	.	.	.	.	.	.	.
8A\L	8a/L	.	8cc#\L	.	8A\L	-cu-	4e\	-cu-	4a\	-cu-	4cc#\	-cu-	4a/	4ee\
8G\	8a/	.	16b\L	.	8G\J	.	.	.	.	.	.	.	.	.
.	.	.	16cc#\JJ	.	.	.	.	.	.	.	.	.	.	.
8F#\	8a/	.	16dd\LL	.	8F#\	-tus	8f#\	-tus	8a\	-tus	8dd\	-tus	8dd\L	8ff#\L
.	.	.	16ff#\	.	.	.	.	.	.	.	.	.	.	.
8G\J	8b/J	.	16ee\	.	8G\	eſt	8e\	eſt	8b\	eſt	8ee\	eſt	8ee\J	8gg\J
.	.	.	16gg\JJ	.	.	.	.	.	.	.	.	.	.	.
=24	=24	=24	=24	=24	=24	=24	=24	=24	=24	=24	=24	=24	=24	=24
8F#\L	8a/L	.	8ff#\	.	8F#\	per	8d\	per	8a\	per	8dd\	per	4dd\	4ff#\
8B\	8f#/J	.	4dd\	.	8B\	pro-	8B\	pro-	8f#\	pro-	8dd\	pro-	.	.
8G\	4e/	.	.	.	8G\L	-phe-	8B\L	-phe-	4e\	-phe-	8dd\L	-phe-	8dd\L	4ee\
8A\J	.	.	8cc#\	.	8A\J	.	8A\J	.	.	.	8cc#\J	.	8a\J	.
!LO:TX:a:Bi:t=Solo	!	!	!	!	!	!	!	!	!	!	!	!	!	!
!	!	!LO:DY:a	!	!LO:DY:a	!	!	!	!	!	!	!	!	!	!
4D\	4f#/	p	8dd\L	p	4D\	-tas	4A\	-tas	8f#\	-tas	4dd\	-tas	4f#/	4dd\
.	.	.	16ff#\L	.	.	.	.	.	8a\	(et)	.	.	.	.
.	.	.	16aa\JJ	.	.	.	.	.	.	.	.	.	.	.
8r	8r	.	16gg\LL	.	4r	.	4r	.	16g\LL	u-	4r	.	4r	4r
.	.	.	16ff#\	.	.	.	.	.	16f#\JJ	.	.	.	.	.
8F#\	8a/	.	16ee\	.	.	.	.	.	16e\LL	-nam	.	.	.	.
.	.	.	16dd\JJ	.	.	.	.	.	16d\JJ	.	.	.	.	.
=25	=25	=25	=25	=25	=25	=25	=25	=25	=25	=25	=25	=25	=25	=25
8A\L	4a/	.	8.cc#\L	.	1r	.	1r	.	4c#\	ſanc-	1r	.	1r	1r
8G\	.	.	.	.	.	.	.	.	.	.	.	.	.	.
.	.	.	32b\LL	.	.	.	.	.	.	.	.	.	.	.
.	.	.	32cc#\JJJ	.	.	.	.	.	.	.	.	.	.	.
8F#\	8a\L	.	8dd\L	.	.	.	.	.	8d\	-tam	.	.	.	.
8G\J	8ee\J	.	8bb\J	.	.	.	.	.	8b\	ſanc-	.	.	.	.
!LO:TX:a:t=P:problem=mixed beam	!	!	!	!	!	!	!	!	!	!	!	!	!	!
8F#\L	8dd\L	.	8aa\L	.	.	.	.	.	8a\	-tam	.	.	.	.
8D\	8dd\	.	8ff#\J	.	.	.	.	.	8f#\	Ca-	.	.	.	.
8E\	8dd\	.	8.gg\L	.	.	.	.	.	8.g\	-tho-	.	.	.	.
8AA\J	8cc#\J	.	.	.	.	.	.	.	.	.	.	.	.	.
.	.	.	32aa\LL	.	.	.	.	.	16g\	-li-	.	.	.	.
.	.	.	32gg\JJJ	.	.	.	.	.	.	.	.	.	.	.
=26	=26	=26	=26	=26	=26	=26	=26	=26	=26	=26	=26	=26	=26	=26
!	!	!	!	!	!	!	!LO:TX:b:Bi:t=Verte Solo	!	!	!	!	!	!	!
4D\	4dd\	.	8ff#\L	.	1r	.	1r	.	8f#\	-cam	1r	.	1r	1r
.	.	.	16gg\L	.	.	.	.	.	16g#X\LL	(et)	.	.	.	.
.	.	.	16aa\JJ	.	.	.	.	.	16a\JJ	.	.	.	.	.
8r	8r	.	8bb\L	.	.	.	.	.	8b\	a-	.	.	.	.
8D#X\	8b\	.	8aa\J	.	.	.	.	.	8a\	-po-	.	.	.	.
8E\L	8b\L	.	8.gg#X\L	.	.	.	.	.	8g#\	-ſto-	.	.	.	.
8Dn\	8b\	.	.	.	.	.	.	.	16f#\LL	-li-	.	.	.	.
.	.	.	32ff#\LL	.	.	.	.	.	16g#\JJ	.	.	.	.	.
.	.	.	32gg#\JJJ	.	.	.	.	.	.	.	.	.	.	.
8C#\	8ee\	.	8aa\L	.	.	.	.	.	8a\	-cam	.	.	.	.
8D\J	8ff#\J	.	8aa\J	.	.	.	.	.	8b\	Ec-	.	.	.	.
=27	=27	=27	=27	=27	=27	=27	=27	=27	=27	=27	=27	=27	=27	=27
!LO:TX:a:t=P:problem=mixed beam	!	!	!	!	!	!	!	!	!	!	!	!	!	!
8E\L	4cc#\	.	4aa\	.	1r	.	2r	.	4a\	-cle-	1r	.	1r	1r
8E\	.	.	.	.	.	.	.	.	.	.	.	.	.	.
8EE\	4b\	.	4gg#X\	.	.	.	.	.	4g#X\	-ſi-	.	.	.	.
8EE\J	.	.	.	.	.	.	.	.	.	.	.	.	.	.
!	!	!	!	!	!	!	!LO:TX:a:Bi:t=Solo&colon;	!	!	!	!	!	!	!
4AA/	4cc#\	.	4aa\	.	.	.	8r	.	8a\	-am	.	.	.	.
.	.	.	.	.	.	.	8c#\	Con-	8a\	Con-	.	.	.	.
8r	4r	.	4r	.	.	.	8c#\	-fi-	8a\	-fi-	.	.	.	.
8AA/	.	.	.	.	.	.	16c#\	-te-	16a\	-te-	.	.	.	.
.	.	.	.	.	.	.	16c#\	-or	16a\	-or	.	.	.	.
=28	=28	=28	=28	=28	=28	=28	=28	=28	=28	=28	=28	=28	=28	=28
8AA/L	1r	.	1r	.	1r	.	4d\	u-	4g#X\	u-	1r	.	1r	1r
8BB/	.	.	.	.	.	.	.	.	.	.	.	.	.	.
8C#/	.	.	.	.	.	.	8e\	-num	8gn\	-num	.	.	.	.
8C#/J	.	.	.	.	.	.	8e\	bap-	8g\	bap-	.	.	.	.
4D\	.	.	.	.	.	.	8d\	-tiſ-	8f#\	-tiſ-	.	.	.	.
.	.	.	.	.	.	.	8d\	ma	8f#\	-ma	.	.	.	.
8r	.	.	.	.	.	.	8f#\	in	8a\	in	.	.	.	.
8D\	.	.	.	.	.	.	16e\LL	re-	16g\LL	re-	.	.	.	.
.	.	.	.	.	.	.	16d\JJ	.	16f#\JJ	.	.	.	.	.
=29	=29	=29	=29	=29	=29	=29	=29	=29	=29	=29	=29	=29	=29	=29
8A\L	4r	.	4r	.	1r	.	8c#\	-miſ-	8e\	-miſ-	1r	.	1r	1r
8G\	.	.	.	.	.	.	16B\LL	-si-	16d\LL	-si-	.	.	.	.
.	.	.	.	.	.	.	16c#\JJ	.	16e\JJ	.	.	.	.	.
8F#\	8r	.	8r	.	.	.	8d\	-o-	8f#\	-o-	.	.	.	.
8D\J	8ff#\	.	8aa\	.	.	.	8f#\	-nem	8a\	-nem	.	.	.	.
8A\L	8ee\L	.	8ggn\L	.	.	.	8e\	pec-	8g\	pec-	.	.	.	.
8B\	8dd\	.	8ff#\J	.	.	.	8d\	-ca-	8f#\	-ca-	.	.	.	.
8G\	8dd\	.	4ee\	.	.	.	8d\L	-to-	4e\	-to-	.	.	.	.
8A\J	8cc#\J	.	.	.	.	.	8c#\J	.	.	.	.	.	.	.
=30	=30	=30	=30	=30	=30	=30	=30	=30	=30	=30	=30	=30	=30	=30
!LO:TX:a:Bi:t=tutti	!	!	!	!	!	!	!	!	!	!	!	!	!	!
!	!LO:TX:a:t=P:problem=mixed beam	!	!	!	!	!	!	!	!	!	!	!	!	!
!	!	!LO:DY:a	!	!LO:DY:a	!	!	!	!	!	!	!	!	!	!
8D\L	8dd\L	f	8ff#L 8a 8d\	f	8D\	(et)	8d\	-rum	8f#\	-rum	8dd\	(Et)	4d/	4dd\
8D\	8a\	.	32ff#\LL	.	8D\	ex-	16A\	(et)	16f#\	(et)	8dd\	ex-	.	.
.	.	.	32ee\	.	.	.	.	.	.	.	.	.	.	.
.	.	.	32ff#\	.	.	.	16A\	ex-	16f#\	ex-	.	.	.	.
.	.	.	32gg\JJJ	.	.	.	.	.	.	.	.	.	.	.
8F#\	8a\	.	16aa\LL	.	8F#\	-pec-	8A\	-pec-	8f#\	-pec-	8dd\	-pec-	8r	8r
.	.	.	16ff#\	.	.	.	.	.	.	.	.	.	.	.
8D\J	8a\J	.	16dd\	.	8D\	-to	8A\	-to	8f#\	-to	8dd\	-to	8d/	8dd\
.	.	.	16a\JJ	.	.	.	.	.	.	.	.	.	.	.
16G\LL	8d/L	.	8f#/	.	16G\LL	re-	8B\	re-	8f#\	re-	8dd\	Re-	8d/L	8dd\L
16F#\	.	.	.	.	16F#\JJ	.	.	.	.	.	.	.	.	.
16G\	16B/L	.	4dd\	.	16G\LL	-ſur-	16B\LL	-ſur-	8f#\	-ſur-	8dd\	-ſur-	8d/	8dd\
16A\JJ	16c#/JJ	.	.	.	16A\JJ	.	16c#\JJ	.	.	.	.	.	.	.
16B\LL	16d/LL	.	.	.	16B\LL	-rec-	16d\LL	-rec-	8f#\	-rec-	8dd\	-rec-	8d/	8dd\
16A\	16c#/	.	.	.	16A\JJ	.	16c#\JJ	.	.	.	.	.	.	.
16B\	16d/	.	8dd\	.	16B\LL	-ti-	16d\LL	-ti-	8f#\	-ti-	8dd\	-ti-	8d/J	8dd\J
16c#\JJ	16e/JJ	.	.	.	16c#\JJ	.	16e\JJ	.	.	.	.	.	.	.
=31	=31	=31	=31	=31	=31	=31	=31	=31	=31	=31	=31	=31	=31	=31
8d\L	16f#/LL	.	16dd\LL	.	8d\	-o-	8A\	-o-	8f#\	-o-	8dd\	-o-	8d/L	8dd\L
.	16e/	.	16cc#\	.	.	.	.	.	.	.	.	.	.	.
8D\J	16f#/	.	16dd\	.	8D\	-nem	8A\	-nem	8f#\	-nem	8dd\	-nem	8d/J	8dd\J
.	16g/JJ	.	16ee\JJ	.	.	.	.	.	.	.	.	.	.	.
8r	16a\LL	.	16ff#\LL	.	8r	.	8r	.	8r	.	8r	.	4r	4r
.	16g\	.	16ee\	.	.	.	.	.	.	.	.	.	.	.
8d\	16a\	.	16ff#\	.	(8d\	{re-	(8d\	Re-	16f#\LL	Re-	(8ff#\	Re-	.	.
.	16ff#\JJ	.	16aa\JJ	.	.	.	.	.	16a\JJ	.	.	.	.	.
8c#\L	8ee\L	.	16aa\LL	.	8c#\)	.	8e\)	.	16a\LL	.	8ee\)	.	2r	2r
.	.	.	16gg\	.	.	.	.	.	16g\JJ	.	.	.	.	.
8B\	8dd\	.	16gg\	.	8B\	-ſur-	8d\	-ſur-	16g\LL	-ſur-	8dd\	-ſur-	.	.
.	.	.	16ff#\JJ	.	.	.	.	.	16f#\JJ	.	.	.	.	.
8A\	8cc#\	.	16ff#\LL	.	8A\	-rec-	8c#\	-rec-	16f#\LL	-rec-	8cc#\	-rec-	.	.
.	.	.	16ee\	.	.	.	.	.	16e\JJ	.	.	.	.	.
8G\J	8b\J	.	16ee\	.	8G\	-ti-	8d\	-ti-	16e\LL	-ti-	8b\	-ti-	.	.
.	.	.	16dd\JJ	.	.	.	.	.	16d\JJ	.	.	.	.	.
=32	=32	=32	=32	=32	=32	=32	=32	=32	=32	=32	=32	=32	=32	=32
8F#\L	8a/L	.	16cc#\LL	.	8F#\	-o-	8d\	-o-	8d\	-o-	8a\	-o-	8r	8r
.	.	.	16dd\	.	.	.	.	.	.	.	.	.	.	.
8A\	8a/	.	16ee\	.	8A\	-nem}	8e\	-nem	8c#\	-nem	8a\	-nem	8a\L	8ee\L
.	.	.	16cc#\JJ	.	.	.	.	.	.	.	.	.	.	.
8F#\	8a/	.	16dd\LL	.	8F#\	mor-	8d\	mor-	8d\	mor-	8a\	mor-	8dd\	8ff#\
.	.	.	16a\	.	.	.	.	.	.	.	.	.	.	.
8D\J	8a/J	.	16dd\	.	8D\	-tu-	8d\	-tu-	8f#\	-tu-	8a\	-tu-	8ff#\J	8aa\J
.	.	.	16ff#\JJ	.	.	.	.	.	.	.	.	.	.	.
*	*tremolo	*	*	*	*	*	*	*	*	*	*	*	*	*
2B\	8dd\L	.	8aa\L	.	2B\	-o-	4f#\	-o-	4a\	-o-	2dd\	-o-	4ff#\	4aa\
.	8dd\	.	8aa\	.	.	.	.	.	.	.	.	.	.	.
.	8dd\	.	8gg#X\	.	.	.	4e\	.	4g#X\	.	.	.	4ee\	4gg#X\
.	8dd\J	.	8gg#\J	.	.	.	.	.	.	.	.	.	.	.
*	*Xtremolo	*	*	*	*	*	*	*	*	*	*	*	*	*
=33	=33	=33	=33	=33	=33	=33	=33	=33	=33	=33	=33	=33	=33	=33
!	!	!	!LO:TX:a:t=P:problem=mixed beam	!	!	!	!	!	!	!	!	!	!	!
4A\	8cc#\L	.	8aa\L	.	4A\	-rum	4e\	-rum	4a\	-rum	8cc#\	-rum	4a/	4aa\
.	16a\L	.	16a\L	.	.	.	.	.	.	.	16a\LL	(et)	.	.
.	16b\JJ	.	16b\JJ	.	.	.	.	.	.	.	(16b\JJ	.	.	.
4r	16cc#\LL	.	16cc#\LL	.	4r	.	4r	.	4r	.	16cc#\LL)	Vi-	4r	4r
.	16dd\	.	16dd\	.	.	.	.	.	.	.	16dd\JJ	.	.	.
.	16ee\	.	16ee\	.	.	.	.	.	.	.	16ee\LL	.	.	.
.	16ff#\JJ	.	16ff#\JJ	.	.	.	.	.	.	.	16ff#\JJ	.	.	.
8r	4.ggn\	.	4.ggn\	.	8r	.	8r	.	8r	.	2ggn\	.	8r	8r
16AA/LL	.	.	.	.	16AA/LL	Ven-	8e\	Ven-	8a\	Ven-	.	.	8ee\L	8gg\L
16BB/JJ	.	.	.	.	16BB/JJ	.	.	.	.	.	.	.	.	.
16C#/LL	.	.	.	.	16C#/LL	-tu-	4e\	-tu-	4a\	-tu-	.	.	8ee\	8gg\
16D/	.	.	.	.	16D/	.	.	.	.	.	.	.	.	.
16E/	16aa\LL	.	16aa\LL	.	16E/	.	.	.	.	.	.	.	8ee\J	8gg\J
16C#/JJ	16gg\JJ	.	16gg\JJ	.	16C#/JJ	.	.	.	.	.	.	.	.	.
=34	=34	=34	=34	=34	=34	=34	=34	=34	=34	=34	=34	=34	=34	=34
4D\	8ff#\L	.	8ff#\L	.	4D\	-ri	4d\	-ri	8a\	-ri	4ff#\	-tam	4dd\	4ff#\
.	16dd\L	.	16dd\L	.	.	.	.	.	16d\LL	(et)	.	.	.	.
.	16ee\JJ	.	16ee\JJ	.	.	.	.	.	16e\JJ	.	.	.	.	.
4r	16ff#\LL	.	16ff#\LL	.	4r	.	4r	.	16f#\LL	vi-	4r	.	4r	4r
.	16gg\	.	16gg\	.	.	.	.	.	16g\	.	.	.	.	.
.	16aa\	.	16aa\	.	.	.	.	.	16a\	.	.	.	.	.
.	16bb\JJ	.	16bb\JJ	.	.	.	.	.	16b\JJ	.	.	.	.	.
8r	8cccn\L	.	4.cccn\	.	8r	.	8r	.	2ccn\	.	8r	.	8r	8r
*	*	*	*	*	*	*	*	*ij	*	*	*	*	*	*
16D\LL	8dd\	.	.	.	16D\LL	Ven-	8d\	Ven-	.	.	8dd\	Ven-	8d/L	8dd\L
16E\JJ	.	.	.	.	16E\JJ	.	.	.	.	.	.	.	.	.
16F#\LL	8dd\	.	.	.	16F#\LL	-tu-	4d\	-tu-	.	.	4dd\	-tu-	8d/	8dd\
16G\	.	.	.	.	16G\	.	.	.	.	.	.	.	.	.
16A\	8dd\J	.	16ddd\LL	.	16A\	.	.	.	.	.	.	.	8d/J	8dd\J
16F#\JJ	.	.	16ccc\JJ	.	16F#\JJ	.	.	.	.	.	.	.	.	.
=35	=35	=35	=35	=35	=35	=35	=35	=35	=35	=35	=35	=35	=35	=35
*	*tremolo	*	*tremolo	*	*	*	*	*	*	*	*	*	*	*
!LO:TX:a:t=P:problem=mixed beam	!	!	!	!	!	!	!	!	!	!	!	!	!	!
8G\L	16ff#\LL	.	16bb\LL	.	4G\	-ri	4d\	-ri	4b\	-tam	4ff#\	-ri	8d/	4dd\
.	16ff#\	.	16bb\	.	.	.	.	.	.	.	.	.	.	.
8G\	16ff#\	.	16bb\	.	.	.	.	.	.	.	.	.	8r	.
.	16ff#\JJ	.	16bb\JJ	.	.	.	.	.	.	.	.	.	.	.
*	*	*	*	*	*	*ij	*	*	*	*	*	*	*	*
8C#\	16ee\LL	.	16bb\LL	.	4C#/	Ven-	4c#\	Ven-	4b\	Ven-	4ee\	Ven-	4r	4r
.	16ee\	.	16bb\	.	.	.	.	.	.	.	.	.	.	.
8C#\J	16ee\	.	16bb\	.	.	.	.	.	.	.	.	.	.	.
.	16ee\JJ	.	16bb\JJ	.	.	.	.	.	.	.	.	.	.	.
!LO:TX:a:t=P:problem=mixed beam	!	!	!	!	!	!	!	!	!	!	!	!	!	!
8F#\L	16ee\LL	.	16aa\LL	.	4F#\	-tu-	4c#\	-tu-	4a\	-tu-	4ee\	-tu-	2r	2r
.	16ee\	.	16aa\	.	.	.	.	.	.	.	.	.	.	.
8F#\	16ee\	.	16aa\	.	.	.	.	.	.	.	.	.	.	.
.	16ee\JJ	.	16aa\JJ	.	.	.	.	.	.	.	.	.	.	.
8BB\	16dd\LL	.	16aa\LL	.	4BB/	-ri	4B\	-ri	4a\	-ri	4dd\	-ri	.	.
.	16dd\	.	16aa\	.	.	.	.	.	.	.	.	.	.	.
8BB\J	16dd\	.	16aa\	.	.	.	.	.	.	.	.	.	.	.
.	16dd\JJ	.	16aa\JJ	.	.	.	.	.	.	.	.	.	.	.
*	*	*	*	*	*	*Xij	*	*Xij	*	*	*	*	*	*
*	*Xtremolo	*	*Xtremolo	*	*	*	*	*	*	*	*	*	*	*
=36	=36	=36	=36	=36	=36	=36	=36	=36	=36	=36	=36	=36	=36	=36
!LO:TX:a:t=P:problem=mixed beam	!	!	!	!	!	!	!	!	!	!	!	!	!	!
8E\L	8dd\L	.	8.gg\L	.	8E\	ſae-	8B\	ſae-	8g\	ſae-	8dd\	ſae-	4r	4r
8AA\J	8cc#\	.	.	.	8AA/	-cu-	8A\	-cu-	8g\	-cu-	8cc#\	-cu-	.	.
.	.	.	32aa\LL	.	.	.	.	.	.	.	.	.	.	.
.	.	.	32gg\JJJ	.	.	.	.	.	.	.	.	.	.	.
8D\L	8dd\	.	16gg\LL	.	8D\L	-li	4A\	-li	4f#\	-li	4dd\	-li	8r	8r
.	.	.	16ff#\	.	.	.	.	.	.	.	.	.	.	.
8F#\J	8a\J	.	16ee\	.	8F#\J	.	.	.	.	.	.	.	8dd\	8aa`\
.	.	.	16dd\JJ	.	.	.	.	.	.	.	.	.	.	.
!LO:TX:a:t=P:problem=mixed beam	!	!	!	!	!	!	!	!	!	!	!	!	!	!
8G\L	8b/L	.	16ee\LL	.	4G\	a-	(4B\	a-	4g\	a-	4ee\	a-	4ee\	4gg\
.	.	.	16ff#\	.	.	.	.	.	.	.	.	.	.	.
8G\	16b/L	.	16gg\	.	.	.	.	.	.	.	.	.	.	.
.	16g/JJ	.	16ee\JJ	.	.	.	.	.	.	.	.	.	.	.
!	!	!	!	!	!LO:TX:a:t=P:problem=mixed beam	!	!	!	!	!	!	!	!	!
8A\	16g/LL	.	16ee\LL	.	8A\L	.	4A\)	.	8f#\L	.	8dd\L	.	8dd\L	8ff#\L
.	16f#/	.	16dd\	.	.	.	.	.	.	.	.	.	.	.
8AA\J	16f#/	.	16dd\	.	8AA\J	.	.	.	8e\J	.	8cc#\J	.	8a\J	8ee\J
.	16e/JJ	.	16cc#\JJ	.	.	.	.	.	.	.	.	.	.	.
=37	=37	=37	=37	=37	=37	=37	=37	=37	=37	=37	=37	=37	=37	=37
8D\L	8f#/	.	8dd\L	.	8D\	-men	8A\	-men	4f#\	-men	8dd\	-men	8f#/	8dd\L
*	*	*	*	*	*	*ij	*	*	*	*	*	*ij	*	*
8B\	4dd\	.	8ff#\J	.	8B\	a-	(4B\	a-	.	.	(4dd\	a-	4dd\	8ff#\J
*	*	*	*	*	*	*	*	*	*	*ij	*	*	*	*
8G\	.	.	4ee\	.	8G\L	.	.	.	4e\	a-	.	.	.	4ee\
8A\J	8cc#\	.	.	.	8A\J	.	8A\)	.	.	.	8cc#\)	.	8a/	.
4D\	4dd\	.	4ff#\	.	4D\	-men	4A\	-men	4f#\	-men	4dd\	-men	4f#/	4dd\
*	*	*	*	*	*	*Xij	*	*	*	*Xij	*	*Xij	*	*
4r	4r	.	4r	.	4r	.	4r	.	4r	.	4r	.	4r	4r
==	==	==	==	==	==	==	==	==	==	==	==	==	==	==
*-	*-	*-	*-	*-	*-	*-	*-	*-	*-	*-	*-	*-	*-	*-
!!!system-decoration: [(s1,s2)][(s3,s4,s5,s6)][(s7,s8)]s9
!!!RDF**kern: > = above
!!!RDF**kern: < = below
!!!RDF**kern: | = vertical stroke
!!!RDF**kern: N = linked
!!!RDF**kern: i = editorial accidental
!!!RDF**kern: l = terminal long
!!!ENC: Andrzej Kubiczek
!!!END: 2020-07-07
!!!EED: Wojciech Jakubiak-Danek
!!!EEV: 2021-12-29
!!!YEC: Copyright 2022 Narodowy Instytut Fryderyka Chopina (https://polishscores.org)
!!!YEM: License CC-BY-4.0 (https://creativecommons.org/licenses/by/4.0)
